packages/ffe-icons/icons/open/300/md/nest_hello_doorbell.svg

<svg xmlns="http://www.w3.org/2000/svg" height="24" viewBox="0 -960 960 960" width="24"><path d="M480.057-90q-78.826 0-134.441-55.576Q290.001-201.15 290.001-280v-400q0-78.85 55.558-134.424 55.558-55.575 134.384-55.575t134.441 55.575Q669.999-758.85 669.999-680v400q0 78.85-55.558 134.424-55.558 55.575-134.384 55.575ZM480.045-150q54.186 0 92.071-37.917T610.001-280v-400q0-54.167-37.93-92.084t-92.116-37.917q-54.186 0-92.071 37.917T349.999-680v400q0 54.167 37.93 92.084t92.116 37.917ZM480-562.308q32.048 0 54.87-22.822 22.822-22.822 22.822-54.87t-22.822-54.87q-22.822-22.822-54.87-22.822t-54.87 22.822q-22.822 22.822-22.822 54.87t22.822 54.87q22.822 22.822 54.87 22.822ZM480-480Zm0 237.692q32.048 0 54.87-22.822 22.822-22.822 22.822-54.87t-22.822-54.87q-22.822-22.822-54.87-22.822t-54.87 22.822q-22.822 22.822-22.822 54.87t22.822 54.87q22.822 22.822 54.87 22.822Zm0-35.384q-17.769 0-30.039-12.269-12.269-12.27-12.269-30.039 0-17.769 12.269-30.039 12.27-12.269 30.039-12.269 17.769 0 30.039 12.269 12.269 12.27 12.269 30.039 0 17.769-12.269 30.039-12.27 12.269-30.039 12.269Z"/></svg>

<svg xmlns="http://www.w3.org/2000/svg" height="24" viewBox="0 -960 960 960" width="24"><path d="M480.06-90q-78.83 0-134.44-55.58Q290-201.15 290-280v-400q0-78.85 55.56-134.42Q401.12-870 479.94-870q78.83 0 134.44 55.58Q670-758.85 670-680v400q0 78.85-55.56 134.42Q558.88-90 480.06-90Zm-.01-60q54.18 0 92.07-37.92Q610-225.83 610-280v-400q0-54.17-37.93-92.08Q534.14-810 479.95-810q-54.18 0-92.07 37.92Q350-734.17 350-680v400q0 54.17 37.93 92.08Q425.86-150 480.05-150ZM480-562.31q32.05 0 54.87-22.82T557.69-640q0-32.05-22.82-54.87T480-717.69q-32.05 0-54.87 22.82T402.31-640q0 32.05 22.82 54.87T480-562.31Zm0 82.31Zm0 237.69q32.05 0 54.87-22.82T557.69-320q0-32.05-22.82-54.87T480-397.69q-32.05 0-54.87 22.82T402.31-320q0 32.05 22.82 54.87T480-242.31Zm0-35.38q-17.77 0-30.04-12.27T437.69-320q0-17.77 12.27-30.04T480-362.31q17.77 0 30.04 12.27T522.31-320q0 17.77-12.27 30.04T480-277.69Z"/></svg>
